X:301
T: Your Welcome Home
N: O'Farrell's Pocket Companion v.4 (Sky ed. p.135)
D: "O'Sullivan Meets O'Farrell" track 9A
N: "Scotch"
M: 2/4
L: 1/8
R: polka
Q: 260
K: Edor
Beef| edBA| Beef| gfed|
Beef| edBA| Bc/d/AF| E2 E2 :|
F2 FE| DEFA| Bcde| fefd|
BdA<d| DEFA| Bc/d/AF| E2E2 :|
